X:1
T:Mo Chailin D\`ileas Donn
M:C
Q:1/4=56
K:Hp
{g}A<{d}A {g}B{GdG}c {g}f2 {gef}e>d | {gcd}c{e}A {GAG}A>B {G}A4 | \
{g}A<{d}A {g}B{GdG}c {ag}a2 {f}ga | {fg}f>e {gcd}ce {gfg}f3 a |$
{ef}e>c {g}e{g}f/g/ {ag}a2 {f}ga | {fg}f>e {gcd}ce {gfg}f3 a | \
e>f {gef}ec {gfg}f2 {ef}e>d | {gcd}c{e}A {GAG}A>B {G} A4 ||$
{g}e>f {gef}ec {ag}a2 f>d | {gcd}c{e}A {GAG}A>B {G}A4 | \
{g}A<{d}A {g}B{GdG}c {ag}a>g {fg}fe | {g}f>e {gcd}ce {gfg}f3 {gf}g |$
{ag}a>f {g}ea {fg}f>e {g}fa | {ef}e>c {G}ce {gfg}f3 a | \
e>c {g}eA {g}B{GdG}c {gfg}f>d | {gcd}c{e}A {GAG}A>B {G}A4 \]$

